X: 50
M:2/4
L:1/16
K:D
((3GFE)|D2D2 DFAF|dFAF dFAF|E2(EF) GBEB|edcB AGFE|
vag|(fd).d.d fdad|fd ((3efg) a2ed|(cA).A.A ceAe|cdef g2eg|
(fd).d.d fdad|fd ((3efg) a2gf|gbag fedc|d2d2d2:|


